;FLAVOR:Marlin
M73 P0
M73 R7
;TIME:420
;Filament used: 0.32958m
;Layer height: 0.28
;MINX:94.416
;MINY:94.423
;MINZ:0.28
;MAXX:135.567
;MAXY:135.576
;MAXZ:5.04
;POSTPROCESSED
;Generated with Cura_SteamEngine 5.3.1
;
;

M140 S60
M105
M190 S60
M104 S200
M105
M109 S200
M82 ;absolute extrusion mode
M220 S100 ;Reset Feedrate
M221 S100 ;Reset Flowrate

; Ender 3 Custom Start G-code
G92 E0 ; Reset Extruder
G28 ; Home all axes
M420 S1 Z2; Use Level Mesh up to 2mm;
G1 Z2.0 F3000 ; Move Z Axis up little to prevent scratching of Heat Bed
G1 X0.1 Y20 Z0.3 F5000.0 ; Move to start position
G1 X0.1 Y200.0 Z0.3 F1500.0 E15 ; Draw the first line
G1 X0.4 Y200.0 Z0.3 F5000.0 ; Move to side a little
G1 X0.4 Y20 Z0.3 F1500.0 E30 ; Draw the second line
G92 E0 ; Reset Extruder
G1 Z2.0 F3000 ; Move Z Axis up little to prevent scratching of Heat Bed
G1 X5 Y20 Z0.3 F5000.0 ; Move over to prevent blob squish
G92 E0
G92 E0
G10
;LAYER_COUNT:18
;LAYER:0
M117 Layer 1 of 18 Simple_Test
M107
M204 S500
M205 X8 Y8
G0 F6000 X100.54 Y100.891 Z0.28
;TYPE:SKIRT
G11
G1 F900 X100.914 Y100.534 E0.02408
G1 X101.674 Y99.849 E0.07172
G1 X102.391 Y99.233 E0.11573
G1 X103.101 Y98.676 E0.15775
G1 X103.588 Y98.348 E0.18509
G1 X104.637 Y97.689 E0.24278
G1 X105.265 Y97.315 E0.27681
G1 X106.061 Y96.888 E0.31888
G1 X106.574 Y96.658 E0.34505
G1 X107.468 Y96.287 E0.39012
G1 X108.387 Y95.93 E0.43603
G1 X109.243 Y95.643 E0.47807
G1 X109.76 Y95.509 E0.50294
G1 X110.737 Y95.287 E0.54959
G1 X111.668 Y95.097 E0.59384
G1 X112.56 Y94.956 E0.63589
G1 X113.175 Y94.905 E0.66462
G1 X114.409 Y94.843 E0.72216
G1 X115.106 Y94.823 E0.75463
G1 X116.009 Y94.837 E0.79668
G1 X116.527 Y94.882 E0.82089
G1 X117.47 Y94.99 E0.86509
G1 X118.468 Y95.128 E0.912
G1 X119.356 Y95.291 E0.95404
G1 X119.908 Y95.435 E0.9806
G1 X120.885 Y95.721 E1.02801
G1 X121.781 Y96.005 E1.07177
G1 X122.629 Y96.315 E1.11382
G1 X123.204 Y96.577 E1.14324
G1 X124.108 Y97.022 E1.19016
G1 X124.926 Y97.445 E1.23304
G1 X125.708 Y97.897 E1.27509
G1 X126.198 Y98.23 E1.30268
G1 X127.187 Y98.949 E1.35962
G1 X127.769 Y99.393 E1.3937
G1 X128.462 Y99.972 E1.43575
G1 X128.875 Y100.372 E1.46252
G1 X129.576 Y101.089 E1.50922
G1 X130.228 Y101.786 E1.55366
G1 X130.813 Y102.474 E1.59571
G1 X131.146 Y102.928 E1.62193
G1 X131.677 Y103.696 E1.6654
G1 X132.229 Y104.533 E1.71209
G1 X132.691 Y105.309 E1.75414
G1 X132.936 Y105.798 E1.77961
G1 X133.347 Y106.68 E1.82492
G1 X133.738 Y107.569 E1.87014
G1 X134.064 Y108.411 E1.91219
G1 X134.238 Y108.98 E1.93989
M73 P1
G1 X134.42 Y109.644 E1.97195
G1 X134.72 Y110.834 E2.0291
G1 X134.9 Y111.719 E2.07115
G1 X134.979 Y112.338 E2.10021
G1 X135.097 Y113.607 E2.15955
G1 X135.145 Y114.299 E2.19185
G1 X135.167 Y115.202 E2.23391
G1 X135.141 Y115.763 E2.26006
G1 X135.047 Y116.988 E2.31727
G1 X134.978 Y117.686 E2.34993
G1 X134.849 Y118.58 E2.39199
G1 X134.723 Y119.154 E2.41936
G1 X134.486 Y120.103 E2.4649
G1 X134.23 Y121.04 E2.51013
G1 X133.951 Y121.899 E2.55219
G1 X133.766 Y122.359 E2.57527
G1 X133.388 Y123.228 E2.6194
G1 X132.955 Y124.162 E2.66734
G1 X132.539 Y124.964 E2.70941
G1 X132.236 Y125.457 E2.73635
G1 X131.7 Y126.27 E2.7817
G1 X131.143 Y127.076 E2.82732
G1 X130.597 Y127.795 E2.86936
G1 X130.179 Y128.268 E2.89875
G1 X129.319 Y129.178 E2.95705
G1 X128.838 Y129.665 E2.98892
G1 X128.176 Y130.278 E3.03093
G1 X127.766 Y130.607 E3.05541
G1 X126.978 Y131.205 E3.10147
G1 X126.18 Y131.781 E3.1473
G1 X125.425 Y132.276 E3.18934
G1 X124.948 Y132.543 E3.21479
G1 X124.357 Y132.853 E3.24587
G1 X123.21 Y133.421 E3.30547
G1 X122.383 Y133.784 E3.34752
G1 X121.823 Y133.982 E3.37518
G1 X120.879 Y134.282 E3.4213
G1 X119.961 Y134.552 E3.46586
G1 X119.084 Y134.768 E3.50792
G1 X118.524 Y134.864 E3.53437
G1 X117.802 Y134.967 E3.56833
G1 X116.587 Y135.112 E3.62531
G1 X115.687 Y135.177 E3.66733
G1 X115.072 Y135.176 E3.69596
G1 X113.839 Y135.133 E3.75341
G1 X113.136 Y135.093 E3.7862
G1 X112.237 Y135.001 E3.82828
G1 X111.688 Y134.905 E3.85423
G1 X110.496 Y134.66 E3.9109
G1 X109.752 Y134.488 E3.94645
G1 X108.882 Y134.246 E3.9885
G1 X108.35 Y134.056 E4.01481
G1 X107.466 Y133.712 E4.05898
G1 X106.531 Y133.323 E4.10613
G1 X105.714 Y132.938 E4.14819
M73 P2
G1 X105.203 Y132.649 E4.17552
G1 X104.343 Y132.13 E4.2223
G1 X103.568 Y131.641 E4.26497
G1 X102.827 Y131.123 E4.30707
G1 X102.36 Y130.742 E4.33513
G1 X101.422 Y129.927 E4.39299
G1 X100.924 Y129.476 E4.42428
G1 X100.282 Y128.841 E4.46632
G1 X99.91 Y128.416 E4.49262
G1 X99.308 Y127.688 E4.53661
G1 X98.674 Y126.884 E4.58429
G1 X98.148 Y126.149 E4.62637
G1 X97.868 Y125.692 E4.65133
G1 X97.378 Y124.837 E4.69722
G1 X96.919 Y123.994 E4.74191
G1 X96.522 Y123.182 E4.784
G1 X96.314 Y122.665 E4.80995
G1 X95.979 Y121.751 E4.85528
G1 X95.647 Y120.773 E4.90337
G1 X95.395 Y119.906 E4.94541
G1 X95.268 Y119.305 E4.97401
G1 X95.091 Y118.324 E5.02043
G1 X94.948 Y117.426 E5.06277
G1 X94.848 Y116.528 E5.10484
G1 X94.827 Y115.966 E5.13103
G1 X94.816 Y114.702 E5.18989
G1 X94.827 Y113.989 E5.2231
G1 X94.881 Y113.087 E5.26517
G1 X94.949 Y112.567 E5.28959
G1 X95.054 Y111.897 E5.32117
G1 X95.267 Y110.702 E5.37769
G1 X95.466 Y109.821 E5.41975
G1 X95.644 Y109.238 E5.44813
G1 X95.961 Y108.302 E5.49415
G1 X96.317 Y107.331 E5.5423
G1 X96.669 Y106.499 E5.58437
G1 X96.922 Y106.003 E5.6103
G1 X97.517 Y104.916 E5.668
G1 X97.876 Y104.295 E5.7014
G1 X98.363 Y103.534 E5.74347
G1 X98.706 Y103.074 E5.77019
G1 X99.463 Y102.121 E5.82686
G1 X99.932 Y101.558 E5.86098
G1 X100.156 Y101.312 E5.87647
G0 F810 X100.54 Y100.891
G0 F6000 X100.244 Y100.622
G1 F900 X100.646 Y100.237 E5.90239
G1 X101.413 Y99.546 E5.95046
G1 X102.144 Y98.918 E5.99534
G1 X102.854 Y98.361 E6.03736
G1 X103.375 Y98.009 E6.06664
G1 X104.432 Y97.345 E6.12476
G1 X105.06 Y96.971 E6.15879
G1 X105.897 Y96.523 E6.203
G1 X106.421 Y96.289 E6.22972
G1 X107.323 Y95.914 E6.27521
M73 P3
G1 X108.26 Y95.551 E6.322
G1 X109.143 Y95.256 E6.36535
G1 X109.671 Y95.119 E6.39075
G1 X110.657 Y94.895 E6.43783
G1 X111.606 Y94.702 E6.48293
G1 X112.527 Y94.557 E6.52634
G1 X113.142 Y94.506 E6.55507
G1 X114.398 Y94.443 E6.61363
G1 X115.112 Y94.423 E6.64689
G1 X116.015 Y94.437 E6.68894
G1 X116.573 Y94.485 E6.71502
G1 X117.525 Y94.594 E6.75964
G1 X118.54 Y94.735 E6.80736
G1 X119.457 Y94.904 E6.85078
G1 X120.02 Y95.051 E6.87787
G1 X121.006 Y95.34 E6.92572
G1 X121.918 Y95.629 E6.97026
G1 X122.795 Y95.951 E7.01377
G1 X123.381 Y96.218 E7.04375
G1 X124.292 Y96.667 E7.09104
G1 X125.126 Y97.099 E7.13478
G1 X125.933 Y97.566 E7.17819
G1 X126.433 Y97.906 E7.20635
G1 X127.43 Y98.631 E7.26375
G1 X128.025 Y99.086 E7.29863
G1 X128.718 Y99.665 E7.34068
G1 X129.161 Y100.092 E7.36933
G1 X129.868 Y100.816 E7.41645
G1 X130.533 Y101.527 E7.46178
G1 X131.136 Y102.237 E7.50516
G1 X131.469 Y102.691 E7.53137
G1 X132.011 Y103.476 E7.57579
G1 X132.573 Y104.328 E7.62332
G1 X133.035 Y105.104 E7.66537
G1 X133.299 Y105.629 E7.69273
G1 X133.713 Y106.519 E7.73844
G1 X134.111 Y107.425 E7.78452
G1 X134.447 Y108.294 E7.8279
G1 X134.624 Y108.874 E7.85614
G1 X134.808 Y109.546 E7.88858
G1 X135.112 Y110.754 E7.94659
G1 X135.297 Y111.668 E7.99001
G1 X135.377 Y112.301 E8.01972
G1 X135.496 Y113.579 E8.07948
G1 X135.545 Y114.289 E8.11262
G1 X135.567 Y115.221 E8.15603
G1 X135.54 Y115.794 E8.18274
G1 X135.445 Y117.027 E8.24033
G1 X135.374 Y117.743 E8.27383
G1 X135.24 Y118.666 E8.31726
G1 X135.111 Y119.251 E8.34515
G1 X134.872 Y120.208 E8.39109
G1 X134.61 Y121.164 E8.43724
G1 X134.322 Y122.048 E8.48053
G1 X134.133 Y122.519 E8.50417
M73 P4
G1 X133.751 Y123.396 E8.54871
G1 X133.31 Y124.346 E8.59748
G1 X132.88 Y125.173 E8.64088
G1 X132.57 Y125.677 E8.66843
G1 X132.029 Y126.497 E8.71418
G1 X131.462 Y127.318 E8.76064
G1 X130.916 Y128.037 E8.80268
G1 X130.47 Y128.543 E8.83408
G1 X129.604 Y129.459 E8.89278
G1 X129.11 Y129.958 E8.92548
G1 X128.426 Y130.59 E8.96884
G1 X128.008 Y130.926 E8.99381
G1 X127.212 Y131.529 E9.04031
G1 X126.399 Y132.116 E9.08701
G1 X125.644 Y132.611 E9.12904
G1 X125.134 Y132.897 E9.15627
G1 X124.535 Y133.211 E9.18776
G1 X123.371 Y133.787 E9.24824
G1 X122.544 Y134.15 E9.29029
G1 X121.944 Y134.363 E9.31994
G1 X120.992 Y134.666 E9.36646
G1 X120.057 Y134.94 E9.41183
G1 X119.152 Y135.162 E9.45522
G1 X118.58 Y135.26 E9.48224
G1 X117.849 Y135.364 E9.51662
G1 X116.616 Y135.511 E9.57444
G1 X115.716 Y135.576 E9.61646
G1 X115.058 Y135.576 E9.6471
G1 X113.816 Y135.532 E9.70497
G1 X113.095 Y135.491 E9.73859
G1 X112.196 Y135.399 E9.78067
G1 X111.607 Y135.297 E9.80851
G1 X110.406 Y135.05 E9.8656
G1 X109.662 Y134.878 E9.90116
G1 X108.747 Y134.623 E9.94539
G1 X108.205 Y134.429 E9.9722
G1 X107.312 Y134.081 E10.01682
G1 X106.36 Y133.685 E10.06483
G1 X105.543 Y133.3 E10.10689
G1 X104.996 Y132.991 E10.13614
G1 X104.13 Y132.468 E10.18325
G1 X103.339 Y131.969 E10.2268
G1 X102.574 Y131.433 E10.27029
G1 X102.098 Y131.044 E10.29892
G1 X101.153 Y130.223 E10.35721
G1 X100.643 Y129.76 E10.38928
G1 X99.981 Y129.104 E10.43268
G1 X99.602 Y128.671 E10.45948
G1 X98.994 Y127.936 E10.50389
G1 X98.349 Y127.117 E10.55243
G1 X97.807 Y126.358 E10.59586
G1 X97.521 Y125.891 E10.62136
G1 X97.027 Y125.028 E10.66767
G1 X96.56 Y124.17 E10.71315
G1 X96.151 Y123.331 E10.75661
M73 P5
G1 X95.938 Y122.803 E10.78313
G1 X95.6 Y121.88 E10.8289
G1 X95.263 Y120.885 E10.87781
G1 X95.011 Y120.018 E10.91985
G1 X94.874 Y119.376 E10.95042
G1 X94.696 Y118.387 E10.99721
G1 X94.55 Y117.47 E11.04045
G1 X94.45 Y116.572 E11.08252
G1 X94.427 Y115.969 E11.11062
G1 X94.416 Y114.696 E11.1699
G1 X94.428 Y113.965 E11.20394
G1 X94.484 Y113.035 E11.24733
G1 X94.554 Y112.505 E11.27222
G1 X94.66 Y111.827 E11.30417
G1 X94.877 Y110.614 E11.36155
G1 X95.083 Y109.704 E11.405
G1 X95.265 Y109.11 E11.43393
G1 X95.585 Y108.164 E11.48043
G1 X95.941 Y107.193 E11.52859
G1 X96.313 Y106.317 E11.5729
G1 X96.571 Y105.811 E11.59935
G1 X97.171 Y104.716 E11.65749
G1 X97.539 Y104.079 E11.69174
G1 X98.026 Y103.318 E11.73381
G1 X98.393 Y102.825 E11.76243
G1 X99.156 Y101.865 E11.81953
G1 X99.636 Y101.289 E11.85445
G1 X99.86 Y101.043 E11.86994
G0 F810 X100.244 Y100.622
G10
;MESH:Simple_Test.stl
G0 F6000 X112.301 Y112.627
G0 X115.393 Y118.373
;TYPE:WALL-INNER
G11
G1 F900 X116.182 Y118.174 E11.90783
G1 X116.907 Y117.795 E11.94592
G1 X117.519 Y117.249 E11.98411
G1 X117.986 Y116.575 E12.02229
G1 X118.275 Y115.814 E12.0602
G1 X118.371 Y115.002 E12.09827
G1 X118.276 Y114.186 E12.13652
G1 X117.986 Y113.425 E12.17445
G1 X117.52 Y112.751 E12.2126
G1 X116.908 Y112.205 E12.25079
G1 X116.182 Y111.826 E12.28893
G1 X115.392 Y111.627 E12.32686
G1 X114.566 Y111.628 E12.36532
G1 X113.776 Y111.826 E12.40325
G1 X113.051 Y112.205 E12.44134
G1 X112.438 Y112.751 E12.47956
G1 X111.974 Y113.425 E12.51767
G1 X111.683 Y114.187 E12.55565
G1 X111.585 Y115 E12.59378
G1 X111.683 Y115.813 E12.63191
G1 X111.974 Y116.575 E12.66989
M73 P6
G1 X112.439 Y117.249 E12.70802
G1 X113.051 Y117.795 E12.74621
G1 X113.777 Y118.174 E12.78434
G1 X114.562 Y118.373 E12.82205
G1 X114.823 Y118.373 E12.83421
G0 F810 X115.393 Y118.373
G0 F6000 X115.443 Y118.773
;TYPE:WALL-OUTER
G1 F900 X116.326 Y118.55 E12.87661
G1 X117.137 Y118.127 E12.91921
G1 X117.821 Y117.516 E12.96191
G1 X118.342 Y116.763 E13.00455
G1 X118.667 Y115.91 E13.04705
G1 X118.775 Y115.001 E13.08968
G1 X118.667 Y114.09 E13.1324
G1 X118.342 Y113.237 E13.1749
G1 X117.822 Y112.484 E13.21751
G1 X117.137 Y111.873 E13.26025
G1 X116.326 Y111.45 E13.30284
G1 X115.442 Y111.227 E13.3453
G1 X114.516 Y111.228 E13.38841
G1 X113.633 Y111.45 E13.43081
G1 X112.822 Y111.873 E13.4734
G1 X112.136 Y112.484 E13.51618
G1 X111.617 Y113.237 E13.55876
G1 X111.292 Y114.09 E13.60127
G1 X111.182 Y115 E13.64395
G1 X111.292 Y115.91 E13.68663
G1 X111.617 Y116.763 E13.72914
G1 X112.137 Y117.516 E13.77175
G1 X112.822 Y118.127 E13.81449
G1 X113.633 Y118.55 E13.85708
G1 X114.512 Y118.773 E13.89931
G1 X114.873 Y118.773 E13.91612
G0 F810 X115.443 Y118.773
G0 F6000 X115.345 Y118.013
;TYPE:SKIN
G1 F900 X114.61 Y118.013 E13.95034
G1 X113.906 Y117.834 E13.98416
G1 X113.259 Y117.497 E14.01813
G1 X112.712 Y117.008 E14.0523
G1 X112.295 Y116.404 E14.08647
G1 X112.036 Y115.728 E14.12018
G1 X111.95 Y115 E14.15432
G1 X112.036 Y114.272 E14.18845
G1 X112.295 Y113.596 E14.22216
G1 X112.711 Y112.993 E14.25627
G1 X113.258 Y112.503 E14.29047
G1 X113.905 Y112.166 E14.32444
G1 X114.614 Y111.988 E14.35848
G1 X115.344 Y111.988 E14.39247
M73 R7
G1 X116.053 Y112.166 E14.42651
G1 X116.701 Y112.503 E14.46052
G1 X117.247 Y112.993 E14.49468
M73 P7
G1 X117.664 Y113.596 E14.52882
G1 X117.922 Y114.267 E14.56229
G1 X118.006 Y115.002 E14.59674
G1 X117.923 Y115.73 E14.63086
G1 X117.664 Y116.403 E14.66443
G1 X117.246 Y117.007 E14.69864
G1 X116.698 Y117.497 E14.73287
G1 X116.053 Y117.834 E14.76675
G1 X115.897 Y117.874 E14.77425
G0 F810 X115.345 Y118.013
G0 F6000 X115.407 Y118.266
G0 X114.583 Y118.212
G0 X113.834 Y118.023
G0 X113.276 Y117.731
G0 X112.368 Y116.97
G0 X112.749 Y116.709
G1 F900 X113.347 Y117.306 E14.8136
G0 F6000 X113.04 Y117.65
G0 X114.231 Y118.185
G0 X114.344 Y117.738
G1 F900 X112.224 Y115.618 E14.9532
G0 F6000 X112.152 Y114.981
G1 F900 X114.983 Y117.811 E15.1396
G0 F6000 X115.502 Y117.765
G1 F900 X112.212 Y114.475 E15.35625
G0 F6000 X112.339 Y114.036
G1 F900 X115.954 Y117.651 E15.5943
G0 F6000 X116.33 Y117.461
G1 F900 X112.507 Y113.638 E15.84605
G0 F6000 X112.738 Y113.303
G1 F900 X116.678 Y117.244 E16.10554
G0 F6000 X116.978 Y116.978
G1 F900 X113.001 Y113.001 E16.36744
G0 F6000 X113.299 Y112.734
G1 F900 X117.236 Y116.67 E16.62666
G0 F6000 X117.467 Y116.336
G1 F900 X113.653 Y112.522 E16.87782
G0 F6000 X114.036 Y112.339
G1 F900 X117.63 Y115.933 E17.11449
G0 F6000 X117.749 Y115.486
G1 F900 X114.488 Y112.225 E17.32923
G0 F6000 X115.016 Y112.188
G1 F900 X117.801 Y114.973 E17.51263
G0 F6000 X117.726 Y114.332
G1 F900 X115.671 Y112.277 E17.64796
G0 F6000 X115.784 Y111.83
G0 X116.618 Y112.242
G0 X117.308 Y112.697
G0 X117.001 Y113.041
G1 F900 X117.118 Y113.158 E17.65566
G10
G0 F6000 X117.499 Y112.897
G0 X117.842 Y113.501
G0 X118.118 Y114.225
G0 X118.209 Y115.002
M73 P8
G0 X118.118 Y115.775
G0 X117.842 Y116.499
G0 X117.396 Y117.142
G0 X116.926 Y117.562
G0 X115.419 Y118.554
G0 X115.683 Y119.604
G0 X115.939 Y122.241
G0 X116.089 Y123.295
G0 X115.414 Y123.896
G0 X115.386 Y123.695
;TYPE:WALL-INNER
G11
G1 F599 X113.79 Y123.621 E17.76744
G1 F596 X112.421 Y123.301 E17.86629
G1 F604 X112.107 Y123.206 E17.88905
G1 F600 X111.057 Y122.741 E17.96926
G1 F601 X110.613 Y122.517 E18.00394
G1 F600 X109.822 Y121.974 E18.07095
G1 F602 X109.284 Y121.567 E18.11791
G1 X108.714 Y120.996 E18.17408
G1 F601 X108.154 Y120.384 E18.23192
G1 X107.796 Y119.864 E18.27594
G1 F599 X107.263 Y119.005 E18.34667
G1 F601 X107.076 Y118.587 E18.3786
G1 F600 X106.648 Y117.482 E18.46137
G1 F603 X106.578 Y117.21 E18.48089
G1 F596 X106.316 Y115.817 E18.58055
G1 F597 X106.316 Y114.184 E18.69518
G1 F595 X106.579 Y112.785 E18.79543
G1 F602 X106.647 Y112.518 E18.81461
G1 F599 X107.075 Y111.414 E18.89746
G1 F601 X107.263 Y110.995 E18.92948
G1 F599 X107.796 Y110.136 E19.00021
G1 F601 X108.154 Y109.617 E19.04417
G1 X108.713 Y109.005 E19.10197
G1 F602 X109.283 Y108.434 E19.15813
G1 F601 X109.823 Y108.025 E19.20537
G1 F599 X110.612 Y107.483 E19.27234
G1 F601 X111.057 Y107.259 E19.30708
G1 F600 X112.106 Y106.794 E19.38722
G1 F603 X112.421 Y106.7 E19.41007
G1 F595 X113.777 Y106.382 E19.50816
G1 F599 X115.396 Y106.304 E19.62156
G1 F604 X116.996 Y106.534 E19.73371
G1 F599 X118.233 Y106.951 E19.82504
G1 F604 X118.615 Y107.102 E19.85354
G1 F602 X119.532 Y107.615 E19.92668
G1 F603 X120.031 Y107.926 E19.96755
G1 F601 X120.712 Y108.493 E20.02934
G1 X121.268 Y108.999 E20.08176
G1 F602 X121.726 Y109.551 E20.13169
G1 F601 X122.284 Y110.289 E20.1962
G1 X122.545 Y110.754 E20.23339
G1 X123.04 Y111.742 E20.31044
G1 F604 X123.16 Y112.089 E20.33592
G1 F595 X123.525 Y113.37 E20.42973
M73 P9
G1 F600 X123.678 Y115 E20.54408
G1 F605 X123.532 Y116.606 E20.65577
G1 F600 X123.161 Y117.911 E20.75053
G1 F604 X123.04 Y118.258 E20.77603
G1 F601 X122.546 Y119.246 E20.85306
G1 F602 X122.285 Y119.711 E20.89018
G1 F601 X121.726 Y120.449 E20.95473
G1 F602 X121.269 Y121.001 E21.00462
G1 X120.712 Y121.507 E21.05701
G1 F601 X120.032 Y122.074 E21.11874
G1 F603 X119.532 Y122.385 E21.15966
G1 F601 X118.615 Y122.896 E21.23287
