; generated by PrusaSlicer 2.6.1+win64 on 2023-09-14 at 15:04:35 UTC
;FLAVOR:Marlin
;TIME:273
;Filament used: 0.368700
;Layer height: 0.28
;MINX:102.118
;MINY:102.112
;MINZ:0.000
;MAXX:127.871
;MAXY:127.888
;MAXZ:5.040
;POSTPROCESSED
;Header generated for the MRiscoC Professional Firmware
;https://github.com/mriscoc/Ender3V2S1

;
;
; 

; external perimeters extrusion width = 0.45mm
; perimeters extrusion width = 0.45mm
; infill extrusion width = 0.45mm
; solid infill extrusion width = 0.45mm
; top infill extrusion width = 0.45mm
; first layer extrusion width = 0.42mm

M73 P0 R4
M201 X500 Y500 Z100 E5000 ; sets maximum accelerations, mm/sec^2
M203 X500 Y500 Z10 E60 ; sets maximum feedrates, mm / sec
M204 P500 R1000 T1500 ; sets acceleration (P, T) and retract acceleration (R), mm/sec^2
M205 X8.00 Y8.00 Z0.40 E5.00 ; sets the jerk limits, mm/sec
M205 S0 T0 ; sets the minimum extruding and travel feed rate, mm/sec
;TYPE:Custom
;
; First layer print x min = 102.118
; First layer print y min = 102.112
; First layer print x max = 127.871
; First layer print y max = 127.888
; Total layer count = 18
;
G90 ; use absolute coordinates
M83 ; extruder relative mode
M104 S205 ; set extruder temp
M140 S60 ; set bed temp
M190 S60 ; wait for bed temp
M109 S205 ; wait for extruder temp
; Setup firmware retraction settings
M207 F3600 S5 Z0
M208 F2400 S0
G28 ; home all
M420 S1 Z2 ; Active mesh leveling
G1 Z2 F240
G1 X2 Y10 F3000
G1 Z0.28 F240
G92 E0
G1 Y190 E15 F1500 ; intro line
G1 X2.3 F5000
G92 E0
M73 P3 R4
G1 Y10 E15 F1200 ; intro line
G92 E0
G21 ; set units to millimeters
G90 ; use absolute coordinates
M82 ; use absolute distances for extrusion
G92 E0
; Filament gcode
M107
;LAYER_CHANGE
;Z:0.28
;HEIGHT:0.28
;BEFORE_LAYER_CHANGE
;0.28


G10 ; retract
G92 E0
G1 Z.28 F9000
;AFTER_LAYER_CHANGE
;0.28
M73 P6 R4
G1 X105.966 Y106.039
G11 ; unretract
G92 E0
;TYPE:Skirt/Brim
;WIDTH:0.42
G1 F1200
G1 X107.61 Y104.644 E.09034
G1 X109.054 Y103.755 E.16139
G1 X111.04 Y102.915 E.25174
G1 X113.139 Y102.422 E.34208
G1 X115.752 Y102.311 E.45166
G1 X117.885 Y102.624 E.54198
M73 P7 R4
G1 X119.977 Y103.314 E.63427
G1 X121.842 Y104.298 E.72262
G1 X123.206 Y105.307 E.7937
G1 X124.726 Y106.836 E.88403
G1 X125.966 Y108.6 E.97437
G1 X127.043 Y110.983 E1.08394
G1 X127.548 Y113.079 E1.17427
G1 X127.692 Y114.769 E1.24533
G1 X127.548 Y116.921 E1.33569
G1 X127.043 Y119.017 E1.42602
G1 X125.966 Y121.4 E1.53559
G1 X124.726 Y123.164 E1.62593
G1 X123.206 Y124.693 E1.71626
G1 X121.45 Y125.944 E1.80659
G1 X119.507 Y126.879 E1.89693
G1 X117.434 Y127.473 E1.98728
G1 X115.752 Y127.689 E2.05833
G1 X113.596 Y127.636 E2.14869
G1 X111.481 Y127.22 E2.239
G1 X109.054 Y126.245 E2.34858
G1 X107.239 Y125.082 E2.4389
G1 X105.646 Y123.628 E2.52926
G1 X104.322 Y121.926 E2.6196
G1 X103.305 Y120.025 E2.70993
G1 X102.624 Y117.979 E2.80028
M73 P8 R4
G1 X102.337 Y116.308 E2.87132
G1 X102.298 Y114.152 E2.96167
G1 X102.624 Y112.021 E3.05199
G1 X103.495 Y109.555 E3.16156
G1 X104.581 Y107.692 E3.25191
G1 X105.927 Y106.085 E3.33974
G1 X106.203 Y106.309 F9000
G1 F1200
G1 X107.798 Y104.95 E3.42753
G1 X109.243 Y104.061 E3.49861
G1 X111.174 Y103.249 E3.58638
G1 X113.215 Y102.774 E3.67418
G1 X115.706 Y102.668 E3.77864
G1 X117.78 Y102.968 E3.86644
G1 X119.773 Y103.614 E3.95422
G1 X121.288 Y104.377 E4.02529
G1 X123.292 Y105.86 E4.12974
G1 X124.718 Y107.396 E4.21755
G1 X125.863 Y109.151 E4.30535
G1 X126.695 Y111.074 E4.39314
G1 X127.19 Y113.11 E4.48093
G1 X127.333 Y114.8 E4.55199
G1 X127.19 Y116.89 E4.63976
G1 X126.695 Y118.926 E4.72755
G1 X125.863 Y120.849 E4.81534
G1 X124.718 Y122.604 E4.90314
G1 X122.992 Y124.404 E5.00762
G1 X121.288 Y125.623 E5.0954
M73 P9 R4
G1 X119.402 Y126.535 E5.18317
G1 X117.389 Y127.116 E5.27095
G1 X115.706 Y127.332 E5.34204
G1 X113.612 Y127.277 E5.4298
G1 X111.557 Y126.869 E5.51758
G1 X109.243 Y125.939 E5.62207
G1 X107.477 Y124.811 E5.70987
G1 X105.926 Y123.402 E5.79766
G1 X104.637 Y121.751 E5.88542
G1 X103.645 Y119.905 E5.97322
G1 X102.979 Y117.919 E6.06098
G1 X102.692 Y116.247 E6.13206
G1 X102.658 Y114.152 E6.21985
G1 X102.979 Y112.081 E6.30766
G1 X103.645 Y110.095 E6.39542
G1 X104.637 Y108.249 E6.48322
G1 X106.166 Y106.356 E6.58517
G10 ; retract
G92 E0
G1 X108.325 Y108.589 F9000
G11 ; unretract
G92 E0
;TYPE:Perimeter
;WIDTH:0.586394
G1 F1200
G1 X108.999 Y107.974 E.0559
;WIDTH:0.58568
G1 X109.504 Y107.556 E.09601
G1 X110.34 Y107.022 E.1567
;WIDTH:0.58307
G1 X110.84 Y106.736 E.19177
G1 X111.874 Y106.306 E.25995
;WIDTH:0.578677
G1 X112.296 Y106.153 E.28705
G1 X113.586 Y105.866 E.36683
;WIDTH:0.57151
G1 X113.829 Y105.822 E.38153
G1 X115.205 Y105.761 E.46353
;WIDTH:0.566065
G1 X115.622 Y105.784 E.48813
;WIDTH:0.575141
G1 X116.872 Y105.95 E.56373
G1 X117.253 Y106.052 E.58738
;WIDTH:0.580931
G1 X118.431 Y106.42 E.66221
G1 X118.899 Y106.642 E.69362
;WIDTH:0.584614
G1 X119.809 Y107.118 E.75633
G1 X120.404 Y107.533 E.80062
;WIDTH:0.586273
M73 P10 R4
G1 X121.105 Y108.077 E.85497
G1 X121.716 Y108.691 E.90803
;WIDTH:0.586037
G1 X122.187 Y109.211 E.95099
G1 X122.788 Y110.073 E1.01533
;WIDTH:0.583899
G1 X123.063 Y110.511 E1.04687
G1 X123.517 Y111.484 E1.11234
;WIDTH:0.579863
G1 X123.707 Y111.941 E1.14229
G1 X124.033 Y113.156 E1.21841
;WIDTH:0.573919
G1 X124.101 Y113.458 E1.23693
G1 X124.227 Y114.896 E1.32327
;WIDTH:0.568031
G1 X124.234 Y115.022 E1.33073
G1 X124.228 Y115.095 E1.33506
;WIDTH:0.573919
G1 X124.101 Y116.542 E1.42195
G1 X124.033 Y116.844 E1.44047
;WIDTH:0.579862
G1 X123.707 Y118.059 E1.51659
G1 X123.517 Y118.516 E1.54654
;WIDTH:0.583901
G1 X123.063 Y119.489 E1.61201
G1 X122.698 Y120.062 E1.65344
;WIDTH:0.586039
G1 X122.159 Y120.824 E1.71059
G1 X121.603 Y121.427 E1.76081
;WIDTH:0.586273
G1 X121.071 Y121.953 E1.80664
G1 X120.273 Y122.563 E1.86817
;WIDTH:0.584614
G1 X119.809 Y122.882 E1.90255
G1 X118.899 Y123.358 E1.96526
;WIDTH:0.581051
G1 X118.409 Y123.587 E1.99806
G1 X117.255 Y123.951 E2.07144
;WIDTH:0.576086
G1 X116.909 Y124.045 E2.09298
G1 X115.463 Y124.234 E2.18058
;WIDTH:0.567998
G1 X115.263 Y124.241 E2.19241
;WIDTH:0.571528
G1 X113.829 Y124.178 E2.27787
G1 X113.586 Y124.134 E2.29257
;WIDTH:0.578677
G1 X112.296 Y123.847 E2.37235
G1 X111.874 Y123.694 E2.39945
;WIDTH:0.583071
G1 X110.84 Y123.264 E2.46763
G1 X110.292 Y122.948 E2.50614
;WIDTH:0.585681
G1 X109.468 Y122.418 E2.56608
G1 X108.877 Y121.919 E2.61341
;WIDTH:0.586394
G1 X108.294 Y121.379 E2.6621
G1 X107.68 Y120.643 E2.72082
;WIDTH:0.585111
G1 X107.312 Y120.158 E2.75803
G1 X106.795 Y119.257 E2.82152
;WIDTH:0.581354
G1 X106.536 Y118.753 E2.85591
G1 X106.149 Y117.692 E2.92444
;WIDTH:0.577129
G1 X106.028 Y117.309 E2.94862
G1 X105.793 Y115.979 E3.02991
;WIDTH:0.570233
G1 X105.763 Y115.785 E3.04157
G1 X105.763 Y114.237 E3.1335
G1 X105.793 Y114.021 E3.14645
;WIDTH:0.57713
G1 X106.028 Y112.691 E3.22774
G1 X106.149 Y112.308 E3.25192
;WIDTH:0.58212
G1 X106.549 Y111.212 E3.32282
G1 X106.82 Y110.692 E3.35845
;WIDTH:0.585207
G1 X107.337 Y109.806 E3.42116
G1 X107.781 Y109.23 E3.46562
;WIDTH:0.586394
G1 X108.286 Y108.635 E3.51343
G1 X107.987 Y108.296 F9000
;TYPE:External perimeter
;WIDTH:0.42
G1 F1200
G1 X109.221 Y107.21 E3.5823
G1 X110.62 Y106.349 E3.65113
G1 X112.145 Y105.736 E3.71999
G1 X113.751 Y105.39 E3.78882
G1 X115.393 Y105.32 E3.85768
G1 X116.985 Y105.524 E3.92493
M73 P11 R4
G1 X118.595 Y106.01 E3.99539
G1 X120.062 Y106.75 E4.06423
G1 X121.383 Y107.727 E4.13307
G1 X122.52 Y108.913 E4.20191
G1 X123.441 Y110.275 E4.2708
G1 X124.117 Y111.772 E4.33962
G1 X124.532 Y113.363 E4.40851
G1 X124.666 Y115.058 E4.47975
G1 X124.532 Y116.637 E4.54614
G1 X124.117 Y118.228 E4.61503
G1 X123.441 Y119.725 E4.68385
G1 X122.52 Y121.087 E4.75274
G1 X121.383 Y122.273 E4.82158
G1 X120.062 Y123.25 E4.89042
G1 X118.595 Y123.99 E4.95926
G1 X117.023 Y124.471 E5.02814
G1 X115.393 Y124.68 E5.09699
G1 X113.751 Y124.61 E5.16585
G1 X112.145 Y124.264 E5.23468
G1 X110.62 Y123.651 E5.30354
G1 X109.221 Y122.79 E5.37237
G1 X107.987 Y121.704 E5.44124
G1 X106.955 Y120.426 E5.51006
G1 X106.14 Y118.954 E5.58055
G1 X105.606 Y117.441 E5.64777
G1 X105.328 Y115.822 E5.71659
G1 X105.328 Y114.178 E5.78547
G1 X105.606 Y112.559 E5.85429
G1 X106.153 Y111.009 E5.92316
G1 X106.955 Y109.574 E5.99204
G1 X107.949 Y108.343 E6.05833
G1 X108.376 Y108.391 F9000
G1 X108.123 Y109.598
;TYPE:Perimeter
;WIDTH:0.586394
G1 F1200
M73 P12 R4
G1 X108.689 Y108.968 E6.11022
G1 X109.218 Y108.437 E6.15614
;WIDTH:0.58568
G1 X109.794 Y107.994 E6.2006
G1 X110.565 Y107.464 E6.25784
;WIDTH:0.58307
G1 X111.046 Y107.216 E6.29079
G1 X112.07 Y106.763 E6.35896
;WIDTH:0.578677
G1 X112.411 Y106.658 E6.3805
G1 X113.698 Y106.356 E6.46031
;WIDTH:0.57151
G1 X113.852 Y106.333 E6.46958
G1 X115.233 Y106.266 E6.55189
;WIDTH:0.566054
G1 X115.554 Y106.282 E6.57082
;WIDTH:0.575141
G1 X116.802 Y106.46 E6.6464
G1 X117.1 Y106.524 E6.66467
;WIDTH:0.580931
G1 X118.249 Y106.909 E6.73814
G1 X118.663 Y107.078 E6.76525
;WIDTH:0.584614
G1 X119.56 Y107.579 E6.82799
G1 X120.002 Y107.851 E6.85968
;WIDTH:0.586273
G1 X120.743 Y108.458 E6.91835
G1 X121.264 Y108.931 E6.96145
;WIDTH:0.586037
G1 X121.762 Y109.521 E7.00872
G1 X122.299 Y110.229 E7.06313
;WIDTH:0.583899
G1 X122.591 Y110.739 E7.09896
G1 X123.071 Y111.7 E7.16446
;WIDTH:0.579863
G1 X123.206 Y112.079 E7.1888
G1 X123.551 Y113.289 E7.26493
;WIDTH:0.573919
G1 X123.589 Y113.505 E7.27805
G1 X123.724 Y114.948 E7.36474
;WIDTH:0.566491
G1 X123.723 Y115.058 E7.37122
;WIDTH:0.573919
G1 X123.589 Y116.495 E7.45755
G1 X123.551 Y116.711 E7.47067
;WIDTH:0.579862
G1 X123.206 Y117.921 E7.5468
G1 X123.071 Y118.3 E7.57114
;WIDTH:0.583901
G1 X122.591 Y119.261 E7.63664
G1 X122.324 Y119.735 E7.66981
;WIDTH:0.586039
G1 X121.762 Y120.479 E7.7269
M73 P12 R3
G1 X121.343 Y120.986 E7.76717
;WIDTH:0.586273
G1 X120.743 Y121.542 E7.81728
G1 X120.096 Y122.082 E7.8689
;WIDTH:0.584614
G1 X119.56 Y122.421 E7.90762
G1 X118.663 Y122.922 E7.97036
;WIDTH:0.581051
G1 X118.247 Y123.091 E7.99759
G1 X117.1 Y123.477 E8.07098
;WIDTH:0.576086
G1 X116.84 Y123.533 E8.08696
G1 X115.389 Y123.731 E8.17493
;WIDTH:0.567971
G1 X115.28 Y123.735 E8.18138
;WIDTH:0.571528
G1 X113.852 Y123.667 E8.2665
G1 X113.698 Y123.644 E8.27577
;WIDTH:0.578677
G1 X112.411 Y123.342 E8.35558
G1 X112.07 Y123.237 E8.37712
;WIDTH:0.583071
G1 X111.046 Y122.784 E8.44529
G1 X110.599 Y122.558 E8.47578
;WIDTH:0.585681
G1 X109.794 Y122.006 E8.5355
G1 X109.305 Y121.639 E8.57291
;WIDTH:0.586394
G1 X108.689 Y121.032 E8.62589
G1 X108.152 Y120.445 E8.67463
;WIDTH:0.585111
G1 X107.763 Y119.889 E8.7161
G1 X107.245 Y119.053 E8.77621
;WIDTH:0.581354
G1 X107.024 Y118.569 E8.8085
G1 X106.615 Y117.517 E8.87699
;WIDTH:0.577129
G1 X106.537 Y117.216 E8.89571
G1 X106.288 Y115.889 E8.97697
;WIDTH:0.570233
G1 X106.273 Y115.763 E8.98451
G1 X106.273 Y114.237 E9.07513
G1 X106.288 Y114.111 E9.08267
;WIDTH:0.57713
G1 X106.537 Y112.784 E9.16393
G1 X106.615 Y112.483 E9.18265
;WIDTH:0.58212
G1 X107.038 Y111.396 E9.25353
G1 X107.244 Y110.946 E9.28361
;WIDTH:0.585207
G1 X107.762 Y110.113 E9.34357
G1 X108.08 Y109.646 E9.37811
;WIDTH:0.586394
G1 X108.083 Y109.642 E9.37842
M73 P13 R3
G1 X108.439 Y109.877 F9000
;TYPE:External perimeter
;WIDTH:0.42
G1 F1200
G1 X109.527 Y108.731 E9.44463
G1 X110.812 Y107.812 E9.51082
G1 X112.248 Y107.153 E9.57702
G1 X113.799 Y106.775 E9.6439
G1 X115.251 Y106.699 E9.70482
G1 X115.491 Y106.709 E9.71488
G1 X116.927 Y106.921 E9.7757
G1 X118.418 Y107.434 E9.84176
G1 X119.788 Y108.221 E9.90796
G1 X120.984 Y109.253 E9.97415
G1 X121.963 Y110.493 E10.04034
G1 X122.69 Y111.896 E10.10655
G1 X123.138 Y113.411 E10.17274
G1 X123.292 Y114.985 E10.239
G1 X123.145 Y116.556 E10.30511
G1 X122.703 Y118.073 E10.37131
G1 X121.982 Y119.478 E10.43747
G1 X121.008 Y120.722 E10.50367
G1 X119.816 Y121.759 E10.56987
G1 X118.45 Y122.552 E10.63605
G1 X116.96 Y123.071 E10.70216
G1 X115.334 Y123.301 E10.77096
G1 X113.833 Y123.23 E10.83392
G1 X112.281 Y122.859 E10.90078
G1 X110.842 Y122.205 E10.967
G1 X109.553 Y121.291 E11.0332
G1 X108.461 Y120.15 E11.09937
G1 X107.604 Y118.823 E11.16555
G1 X107.014 Y117.358 E11.23172
G1 X106.967 Y117.133 E11.24135
G1 X106.711 Y115.807 E11.29793
G1 X106.708 Y114.227 E11.36413
G1 X107.004 Y112.675 E11.43033
G1 X107.588 Y111.207 E11.49652
G1 X108.407 Y109.927 E11.56019
G1 X108.29 Y109.506 F9000
G10 ; retract
G92 E0
G1 X113.093 Y112.263
G11 ; unretract
G92 E0
;TYPE:Perimeter
G1 F1200
M73 P14 R3
G1 X113.807 Y111.889 E.03377
G1 X114.524 Y111.709 E.06474
G1 X115.372 Y111.698 E.10027
G1 X116.159 Y111.89 E.13421
G1 X116.871 Y112.263 E.16789
G1 X117.471 Y112.795 E.20149
G1 X117.926 Y113.454 E.23504
G1 X118.212 Y114.218 E.26922
G1 X118.307 Y115 E.30222
G1 X118.211 Y115.796 E.33581
G1 X117.926 Y116.545 E.36939
G1 X117.471 Y117.205 E.40298
G1 X116.873 Y117.735 E.43646
G1 X116.115 Y118.124 E.47216
G1 X115.368 Y118.303 E.50434
G1 X114.597 Y118.303 E.53664
G1 X113.805 Y118.11 E.57079
G1 X113.093 Y117.737 E.60447
G1 X112.493 Y117.205 E.63807
G1 X112.038 Y116.545 E.67166
G1 X111.753 Y115.796 E.70524
G1 X111.657 Y115 E.73883
G1 X111.753 Y114.204 E.77242
G1 X112.038 Y113.455 E.806
G1 X112.493 Y112.795 E.83959
G1 X113.048 Y112.303 E.87066
G1 X112.887 Y111.965 F9000
;TYPE:External perimeter
G1 F1200
G1 X113.678 Y111.55 E.90809
G1 X114.477 Y111.35 E.9426
G1 X115.412 Y111.337 E.98178
G1 X116.287 Y111.55 E1.01951
G1 X117.077 Y111.965 E1.0569
G1 X117.742 Y112.555 E1.09415
G1 X118.247 Y113.286 E1.13137
G1 X118.564 Y114.132 E1.16922
G1 X118.67 Y115 E1.20586
G1 X118.563 Y115.883 E1.24313
G1 X118.247 Y116.714 E1.28038
G1 X117.742 Y117.445 E1.3176
G1 X117.078 Y118.034 E1.35479
G1 X116.241 Y118.464 E1.39422
G1 X115.411 Y118.663 E1.42998
G1 X114.554 Y118.663 E1.46589
G1 X113.677 Y118.449 E1.50371
G1 X112.887 Y118.035 E1.54108
G1 X112.222 Y117.445 E1.57833
G1 X111.717 Y116.714 E1.61555
G1 X111.401 Y115.883 E1.6528
G1 X111.294 Y115 E1.69007
G1 X111.401 Y114.117 E1.72734
G1 X111.717 Y113.286 E1.76459
G1 X112.222 Y112.555 E1.80181
G1 X112.842 Y112.005 E1.83653
G1 X113.249 Y112.137 F9000
G10 ; retract
G92 E0
G1 X116.437 Y112.158
G11 ; unretract
G92 E0
;TYPE:Solid infill
;WIDTH:0.439927
G1 F1200
G1 X117.296 Y113.017 E.05372
G1 X117.685 Y113.58 E.08398
G1 X117.902 Y114.16 E.11136
G1 X115.829 Y112.087 E.24099
G1 X115.341 Y111.968 E.2632
M73 P15 R3
G1 X115.175 Y111.97 E.27054
G1 X118.012 Y114.807 E.44794
G1 X118.035 Y115 E.45653
G1 X117.995 Y115.328 E.47114
G1 X114.645 Y111.978 E.68062
G1 X114.559 Y111.979 E.68442
G1 X114.199 Y112.069 E.70083
G1 X117.923 Y115.792 E.93367
G1 X117.775 Y116.182 E.95211
G1 X113.794 Y112.2 E1.20108
G1 X113.442 Y112.385 E1.21866
G1 X117.6 Y116.543 E1.47867
G1 X117.38 Y116.861 E1.49577
G1 X113.12 Y112.601 E1.76216
G1 X112.835 Y112.853 E1.77898
G1 X117.129 Y117.147 E2.04749
G1 X116.844 Y117.4 E2.06434
G1 X112.584 Y113.139 E2.33076
G1 X112.364 Y113.457 E2.34786
G1 X116.52 Y117.613 E2.60774
G1 X116.165 Y117.795 E2.62538
M73 P16 R3
G1 X112.189 Y113.818 E2.87404
G1 X112.041 Y114.208 E2.89248
G1 X115.764 Y117.931 E3.12529
G1 X115.329 Y118.033 E3.14505
G1 X111.969 Y114.672 E3.35519
G1 X111.929 Y115 E3.3698
G1 X111.952 Y115.193 E3.37839
G1 X114.792 Y118.033 E3.55598
G1 X114.629 Y118.033 E3.56319
G1 X114.134 Y117.913 E3.58571
G1 X112.057 Y115.835 E3.71562
G1 X112.278 Y116.419 E3.74323
G1 X112.668 Y116.984 E3.77359
G1 X113.527 Y117.842 E3.82727
M106 S127.5
;LAYER_CHANGE
;Z:0.56
;HEIGHT:0.28
;BEFORE_LAYER_CHANGE
;0.56


G10 ; retract
G92 E0
G1 Z.56 F9000
;AFTER_LAYER_CHANGE
;0.56
M104 S200 ; set temperature
G1 X109.998 Y126.625
G11 ; unretract
G92 E0
;TYPE:Skirt/Brim
;WIDTH:0.42
G1 F2400
G1 X109.054 Y126.245 E.04264
G1 X107.239 Y125.082 E.13296
G1 X105.646 Y123.628 E.22332
G1 X104.322 Y121.926 E.31366
G1 X103.305 Y120.025 E.40399
G1 X102.624 Y117.979 E.49434
G1 X102.337 Y116.308 E.56538
G1 X102.298 Y114.152 E.65573
G1 X102.624 Y112.021 E.74605
G1 X103.495 Y109.555 E.85562
G1 X104.581 Y107.692 E.94597
G1 X105.966 Y106.039 E1.03632
G1 X107.61 Y104.644 E1.12666
G1 X109.054 Y103.755 E1.19771
G1 X111.04 Y102.915 E1.28806
G1 X113.139 Y102.422 E1.3784
M73 P17 R3
G1 X115.752 Y102.311 E1.48798
G1 X117.885 Y102.624 E1.5783
G1 X119.977 Y103.314 E1.67059
G1 X121.842 Y104.298 E1.75894
G1 X123.206 Y105.307 E1.83002
G1 X124.726 Y106.836 E1.92035
