; generated by PrusaSlicer 2.5.2+win64 on 2023-05-30 at 15:57:38 UTC
;FLAVOR:Marlin
;TIME:290
;Filament used: 0.352780
;Layer height: 0.28
;MINX:0.000
;MINY:0.000
;MINZ:0.000
;MAXX:0.000
;MAXY:0.000
;MAXZ:0.000
;POSTPROCESSED
;Header generated for The Ender3v2 Professional Firmware
;https://github.com/mriscoc/Marlin_Ender3v2



;
;
; 

; external perimeters extrusion width = 0.45mm
; perimeters extrusion width = 0.45mm
; infill extrusion width = 0.45mm
; solid infill extrusion width = 0.45mm
; top infill extrusion width = 0.45mm
; first layer extrusion width = 0.42mm

M73 P0 R4
M201 X500 Y500 Z100 E5000 ; sets maximum accelerations, mm/sec^2
M203 X500 Y500 Z10 E60 ; sets maximum feedrates, mm / sec
M204 P500 R1000 T1500 ; sets acceleration (P, T) and retract acceleration (R), mm/sec^2
M205 X8.00 Y8.00 Z0.40 E5.00 ; sets the jerk limits, mm/sec
M205 S0 T0 ; sets the minimum extruding and travel feed rate, mm/sec
M107
;TYPE:Custom
G90 ; use absolute coordinates
M83 ; extruder relative mode
M104 S205 ; set extruder temp
M140 S60 ; set bed temp
M190 S60 ; wait for bed temp
M109 S205 ; wait for extruder temp
; Setup firmware retraction settings
M207 F3600 S5 Z0
M208 F2400 S0
G28 ; home all
M420 S1 Z2 ; Active mesh leveling
G1 Z2 F240
G1 X2 Y10 F3000
G1 Z0.28 F240
G92 E0
G1 Y190 E15 F1500 ; intro line
G1 X2.3 F5000
G92 E0
M73 P2 R4
G1 Y10 E15 F1200 ; intro line
G92 E0
G21 ; set units to millimeters
G90 ; use absolute coordinates
M82 ; use absolute distances for extrusion
G92 E0
; Filament gcode
M107
;LAYER_CHANGE
;Z:0.28
;HEIGHT:0.28
;BEFORE_LAYER_CHANGE
;0.28


G10 ; retract
G92 E0
G1 Z.28 F9000
;AFTER_LAYER_CHANGE
;0.28
M73 P6 R4
G1 X105.646 Y106.372
G11 ; unretract
G92 E0
;TYPE:Skirt/Brim
;WIDTH:0.42
G1 F1200
G1 X107.239 Y104.918 E.09034
G1 X109.054 Y103.755 E.18067
G1 X111.04 Y102.915 E.27101
G1 X113.596 Y102.364 E.38059
G1 X115.752 Y102.311 E.47092
G1 X117.885 Y102.624 E.56126
G1 X119.935 Y103.293 E.6516
G1 X121.45 Y104.056 E.72266
G1 X123.206 Y105.307 E.813
G1 X125.016 Y107.195 E.92258
G1 X126.19 Y109.003 E1.01291
G1 X127.043 Y110.983 E1.10325
G1 X127.548 Y113.079 E1.19358
G1 X127.692 Y114.769 E1.26465
G1 X127.548 Y116.921 E1.35498
G1 X127.043 Y119.017 E1.44532
G1 X125.966 Y121.4 E1.5549
M73 P7 R4
G1 X124.726 Y123.164 E1.64524
G1 X123.206 Y124.693 E1.73557
G1 X121.45 Y125.944 E1.82591
G1 X119.462 Y126.893 E1.91821
G1 X117.434 Y127.473 E2.00656
G1 X115.752 Y127.689 E2.07762
G1 X113.596 Y127.636 E2.16796
G1 X111.04 Y127.085 E2.27754
G1 X109.054 Y126.245 E2.36787
G1 X107.239 Y125.082 E2.45821
G1 X105.646 Y123.628 E2.54855
G1 X104.322 Y121.926 E2.63888
G1 X103.495 Y120.445 E2.70995
G1 X102.74 Y118.426 E2.80028
G1 X102.298 Y115.848 E2.90986
G1 X102.337 Y113.692 E3.0002
G1 X102.74 Y111.574 E3.09053
G1 X103.518 Y109.513 E3.18284
G1 X104.581 Y107.692 E3.27118
G1 X105.609 Y106.419 E3.33973
G1 X105.889 Y106.645 F9000
G1 F1200
G1 X107.477 Y105.189 E3.43
G1 X109.243 Y104.061 E3.51779
G1 X111.174 Y103.249 E3.60557
G1 X113.612 Y102.723 E3.71005
G1 X115.706 Y102.668 E3.79784
G1 X117.78 Y102.968 E3.88562
M73 P8 R4
G1 X119.773 Y103.614 E3.97341
G1 X121.288 Y104.377 E4.04447
G1 X122.992 Y105.596 E4.13225
G1 X124.718 Y107.396 E4.23674
G1 X125.863 Y109.151 E4.32452
G1 X126.695 Y111.074 E4.41231
G1 X127.19 Y113.11 E4.50009
G1 X127.333 Y114.8 E4.57115
G1 X127.19 Y116.89 E4.65894
G1 X126.695 Y118.926 E4.74672
G1 X125.667 Y121.198 E4.8512
G1 X124.466 Y122.915 E4.93899
G1 X122.992 Y124.404 E5.02677
G1 X121.288 Y125.623 E5.11456
G1 X119.356 Y126.549 E5.20431
G1 X117.389 Y127.116 E5.2901
G1 X115.706 Y127.332 E5.36117
G1 X113.612 Y127.277 E5.44895
G1 X111.557 Y126.869 E5.53674
G1 X109.243 Y125.939 E5.64122
G1 X107.477 Y124.811 E5.729
G1 X105.926 Y123.402 E5.81679
G1 X104.637 Y121.751 E5.90457
G1 X103.809 Y120.27 E5.97564
G1 X103.08 Y118.306 E6.06342
G1 X102.692 Y116.247 E6.1512
G1 X102.692 Y113.753 E6.25569
G1 X103.08 Y111.694 E6.34347
M73 P9 R4
G1 X103.833 Y109.689 E6.43322
G1 X104.861 Y107.918 E6.51902
G1 X105.851 Y106.691 E6.58505
G10 ; retract
G92 E0
G1 X108.325 Y108.589 F9000
G11 ; unretract
G92 E0
;TYPE:Perimeter
;WIDTH:0.586394
G1 F1200
G1 X108.999 Y107.974 E.05589
;WIDTH:0.585681
G1 X109.504 Y107.556 E.09602
G1 X110.34 Y107.022 E.1567
;WIDTH:0.583072
G1 X110.84 Y106.736 E.19178
G1 X111.874 Y106.306 E.25997
;WIDTH:0.578677
G1 X112.296 Y106.153 E.28703
G1 X113.586 Y105.866 E.36685
;WIDTH:0.57151
G1 X113.829 Y105.822 E.3815
G1 X115.205 Y105.761 E.46351
;WIDTH:0.566065
G1 X115.622 Y105.784 E.48815
;WIDTH:0.575498
G1 X116.909 Y105.955 E.56602
G1 X117.255 Y106.049 E.58752
;WIDTH:0.581051
G1 X118.43 Y106.42 E.66224
G1 X118.899 Y106.642 E.69372
;WIDTH:0.584614
G1 X119.809 Y107.118 E.75644
G1 X120.404 Y107.533 E.80075
;WIDTH:0.586273
G1 X121.105 Y108.077 E.85507
G1 X121.716 Y108.691 E.90812
;WIDTH:0.586037
G1 X122.187 Y109.211 E.9511
G1 X122.788 Y110.073 E1.01545
;WIDTH:0.583898
G1 X123.063 Y110.511 E1.04698
G1 X123.517 Y111.484 E1.11243
;WIDTH:0.579862
G1 X123.707 Y111.941 E1.14236
G1 X124.033 Y113.156 E1.2185
;WIDTH:0.573919
G1 X124.101 Y113.458 E1.23705
G1 X124.227 Y114.896 E1.32338
;WIDTH:0.568031
G1 X124.234 Y115.022 E1.3308
G1 X124.227 Y115.104 E1.33568
;WIDTH:0.573919
G1 X124.101 Y116.542 E1.422
G1 X124.033 Y116.844 E1.44056
;WIDTH:0.579862
G1 X123.707 Y118.059 E1.51669
G1 X123.517 Y118.516 E1.54663
;WIDTH:0.583898
G1 X123.063 Y119.489 E1.61208
G1 X122.698 Y120.062 E1.65351
;WIDTH:0.586035
G1 X122.159 Y120.824 E1.71064
G1 X121.603 Y121.427 E1.76083
;WIDTH:0.586273
G1 X121.071 Y121.953 E1.80666
G1 X120.273 Y122.563 E1.8682
;WIDTH:0.584614
G1 X119.809 Y122.882 E1.9026
G1 X118.899 Y123.358 E1.96532
;WIDTH:0.58105
G1 X118.409 Y123.587 E1.99813
G1 X117.255 Y123.951 E2.07151
;WIDTH:0.576084
G1 X116.909 Y124.045 E2.09303
G1 X115.463 Y124.234 E2.18064
;WIDTH:0.567998
G1 X115.257 Y124.241 E2.19279
;WIDTH:0.57153
G1 X113.829 Y124.178 E2.27793
G1 X113.586 Y124.134 E2.29259
;WIDTH:0.578676
G1 X112.296 Y123.847 E2.37241
G1 X111.874 Y123.694 E2.39947
;WIDTH:0.583071
G1 X110.84 Y123.264 E2.46765
G1 X110.292 Y122.948 E2.50621
;WIDTH:0.585683
G1 X109.468 Y122.418 E2.56612
G1 X108.877 Y121.919 E2.61345
;WIDTH:0.586394
G1 X108.294 Y121.379 E2.66213
G1 X107.68 Y120.643 E2.72085
;WIDTH:0.585207
G1 X107.312 Y120.157 E2.75812
G1 X106.794 Y119.263 E2.8213
;WIDTH:0.58212
G1 X106.549 Y118.788 E2.85378
M73 P10 R4
G1 X106.149 Y117.692 E2.92463
;WIDTH:0.577129
G1 X106.028 Y117.309 E2.94885
G1 X105.793 Y115.979 E3.03015
;WIDTH:0.570234
G1 X105.763 Y115.785 E3.04181
G1 X105.763 Y114.237 E3.13371
G1 X105.793 Y114.021 E3.14665
;WIDTH:0.57713
G1 X106.028 Y112.691 E3.22795
G1 X106.149 Y112.308 E3.25217
;WIDTH:0.58212
G1 X106.549 Y111.212 E3.32301
G1 X106.82 Y110.692 E3.35869
;WIDTH:0.585205
G1 X107.337 Y109.806 E3.42137
G1 X107.781 Y109.23 E3.46584
;WIDTH:0.586394
G1 X108.286 Y108.635 E3.51367
G1 X107.987 Y108.296 F9000
;TYPE:External perimeter
;WIDTH:0.42
G1 F1200
G1 X109.221 Y107.21 E3.58252
G1 X110.62 Y106.349 E3.65138
G1 X112.145 Y105.736 E3.72023
G1 X113.751 Y105.39 E3.78908
G1 X115.393 Y105.32 E3.85793
G1 X117.023 Y105.529 E3.92678
G1 X118.595 Y106.01 E3.99564
G1 X120.062 Y106.75 E4.06449
G1 X121.383 Y107.727 E4.13334
G1 X122.52 Y108.913 E4.20219
G1 X123.441 Y110.275 E4.27105
G1 X124.117 Y111.772 E4.3399
G1 X124.532 Y113.363 E4.40875
G1 X124.666 Y115.058 E4.48002
G1 X124.532 Y116.637 E4.54642
G1 X124.117 Y118.228 E4.61527
G1 X123.441 Y119.725 E4.68412
G1 X122.52 Y121.087 E4.75297
G1 X121.383 Y122.273 E4.82183
G1 X120.062 Y123.25 E4.89068
G1 X118.595 Y123.99 E4.95953
G1 X117.023 Y124.471 E5.02838
G1 X115.393 Y124.68 E5.09724
G1 X113.751 Y124.61 E5.16609
G1 X112.145 Y124.264 E5.23494
G1 X110.62 Y123.651 E5.30379
G1 X109.221 Y122.79 E5.37264
G1 X107.987 Y121.704 E5.4415
G1 X106.955 Y120.426 E5.51035
M73 P11 R4
G1 X106.153 Y118.991 E5.5792
G1 X105.606 Y117.441 E5.64805
G1 X105.328 Y115.822 E5.7169
G1 X105.328 Y114.178 E5.78576
G1 X105.606 Y112.559 E5.85461
G1 X106.153 Y111.009 E5.92346
G1 X106.955 Y109.574 E5.99231
G1 X107.949 Y108.343 E6.05865
G1 X108.376 Y108.391 F9000
G1 X108.123 Y109.598
;TYPE:Perimeter
;WIDTH:0.586394
G1 F1200
G1 X108.689 Y108.968 E6.11052
G1 X109.219 Y108.437 E6.15647
;WIDTH:0.585681
G1 X109.794 Y107.994 E6.20091
G1 X110.565 Y107.464 E6.2581
;WIDTH:0.583072
G1 X111.046 Y107.216 E6.29108
G1 X112.07 Y106.763 E6.35927
;WIDTH:0.578677
G1 X112.411 Y106.658 E6.38078
G1 X113.698 Y106.356 E6.4606
;WIDTH:0.57151
G1 X113.852 Y106.333 E6.46988
G1 X115.228 Y106.267 E6.55189
;WIDTH:0.566065
G1 X115.554 Y106.282 E6.57109
;WIDTH:0.575498
G1 X116.839 Y106.466 E6.64896
G1 X117.1 Y106.523 E6.66502
;WIDTH:0.581051
G1 X118.247 Y106.909 E6.7384
G1 X118.663 Y107.078 E6.76565
;WIDTH:0.584614
G1 X119.56 Y107.579 E6.82837
G1 X120.002 Y107.851 E6.86006
;WIDTH:0.586273
G1 X120.743 Y108.458 E6.91871
G1 X121.264 Y108.931 E6.96181
;WIDTH:0.586037
G1 X121.762 Y109.521 E7.00912
G1 X122.299 Y110.229 E7.06352
;WIDTH:0.583898
G1 X122.591 Y110.739 E7.09937
G1 X123.071 Y111.7 E7.16482
;WIDTH:0.579862
G1 X123.206 Y112.079 E7.18922
G1 X123.551 Y113.289 E7.26535
;WIDTH:0.573919
G1 X123.589 Y113.505 E7.27843
G1 X123.723 Y114.942 E7.36476
;WIDTH:0.566491
G1 X123.723 Y115.058 E7.37163
;WIDTH:0.573919
G1 X123.589 Y116.495 E7.45796
G1 X123.551 Y116.711 E7.47104
;WIDTH:0.579862
G1 X123.206 Y117.921 E7.54717
G1 X123.071 Y118.3 E7.57157
;WIDTH:0.583898
G1 X122.591 Y119.261 E7.63702
G1 X122.324 Y119.735 E7.67021
;WIDTH:0.586035
G1 X121.762 Y120.479 E7.72729
G1 X121.343 Y120.986 E7.76755
;WIDTH:0.586273
G1 X120.743 Y121.542 E7.81771
G1 X120.096 Y122.082 E7.8693
;WIDTH:0.584614
G1 X119.56 Y122.421 E7.90802
G1 X118.663 Y122.922 E7.97074
;WIDTH:0.58105
G1 X118.247 Y123.091 E7.99799
G1 X117.1 Y123.477 E8.07138
;WIDTH:0.576084
G1 X116.84 Y123.533 E8.08733
G1 X115.395 Y123.73 E8.17493
;WIDTH:0.567998
G1 X115.28 Y123.735 E8.18174
;WIDTH:0.57153
G1 X113.852 Y123.667 E8.26687
G1 X113.698 Y123.644 E8.27614
;WIDTH:0.578676
G1 X112.411 Y123.342 E8.35596
G1 X112.07 Y123.237 E8.37747
;WIDTH:0.583071
G1 X111.046 Y122.784 E8.44565
G1 X110.599 Y122.558 E8.47618
;WIDTH:0.585683
G1 X109.794 Y122.006 E8.53585
G1 X109.305 Y121.639 E8.57325
;WIDTH:0.586394
M73 P12 R4
G1 X108.689 Y121.032 E8.62625
G1 X108.152 Y120.445 E8.67503
;WIDTH:0.585207
G1 X107.762 Y119.887 E8.71661
G1 X107.244 Y119.054 E8.77658
;WIDTH:0.58212
G1 X107.038 Y118.604 E8.80669
G1 X106.615 Y117.517 E8.87754
;WIDTH:0.577129
G1 X106.537 Y117.216 E8.89625
G1 X106.288 Y115.889 E8.97755
;WIDTH:0.570234
G1 X106.273 Y115.763 E8.98506
G1 X106.273 Y114.237 E9.07568
G1 X106.288 Y114.111 E9.08319
;WIDTH:0.57713
G1 X106.537 Y112.784 E9.16449
G1 X106.615 Y112.483 E9.18321
;WIDTH:0.58212
G1 X107.038 Y111.396 E9.25405
G1 X107.244 Y110.946 E9.28416
;WIDTH:0.585205
G1 X107.762 Y110.113 E9.34413
G1 X108.08 Y109.646 E9.37867
;WIDTH:0.586394
G1 X108.083 Y109.642 E9.37896
G1 X108.439 Y109.877 F9000
;TYPE:External perimeter
;WIDTH:0.42
G1 F1200
G1 X109.527 Y108.731 E9.44515
G1 X110.812 Y107.812 E9.51134
G1 X112.248 Y107.153 E9.57755
G1 X113.799 Y106.775 E9.64442
G1 X115.25 Y106.699 E9.70529
G1 X115.491 Y106.709 E9.71539
G1 X116.927 Y106.921 E9.77621
G1 X118.418 Y107.434 E9.84229
G1 X119.788 Y108.221 E9.90848
G1 X120.984 Y109.253 E9.97467
G1 X121.963 Y110.493 E10.04086
G1 X122.69 Y111.896 E10.10705
G1 X123.138 Y113.411 E10.17324
G1 X123.292 Y114.985 E10.2395
G1 X123.145 Y116.556 E10.30562
G1 X122.703 Y118.073 E10.3718
G1 X121.982 Y119.478 E10.43799
G1 X121.008 Y120.722 E10.50418
G1 X119.816 Y121.759 E10.57037
G1 X118.45 Y122.552 E10.63656
G1 X116.96 Y123.071 E10.70267
G1 X115.334 Y123.301 E10.77147
G1 X113.833 Y123.23 E10.83443
G1 X112.281 Y122.859 E10.90127
G1 X110.842 Y122.205 E10.96749
G1 X109.553 Y121.291 E11.03368
G1 X108.461 Y120.15 E11.09987
G1 X107.604 Y118.823 E11.16606
G1 X107.014 Y117.358 E11.23225
G1 X106.967 Y117.133 E11.24185
M73 P13 R4
G1 X106.711 Y115.807 E11.29844
G1 X106.708 Y114.227 E11.36463
G1 X107.004 Y112.675 E11.43082
G1 X107.588 Y111.207 E11.497
G1 X108.407 Y109.927 E11.56068
G1 X108.29 Y109.506 F9000
G10 ; retract
G92 E0
G1 X113.093 Y112.263
G11 ; unretract
G92 E0
;TYPE:Perimeter
G1 F1200
G1 X113.807 Y111.889 E.03377
G1 X114.524 Y111.709 E.06475
G1 X115.372 Y111.698 E.10026
G1 X116.159 Y111.89 E.13421
G1 X116.871 Y112.263 E.16791
G1 X117.471 Y112.795 E.20149
G1 X117.926 Y113.455 E.23508
G1 X118.211 Y114.204 E.26866
G1 X118.307 Y115 E.30225
G1 X118.211 Y115.796 E.33583
G1 X117.926 Y116.545 E.36942
G1 X117.471 Y117.205 E.403
G1 X116.873 Y117.735 E.43648
G1 X116.115 Y118.124 E.47217
G1 X115.368 Y118.303 E.50436
G1 X114.597 Y118.303 E.53666
G1 X113.805 Y118.11 E.57081
G1 X113.093 Y117.737 E.6045
G1 X112.493 Y117.205 E.63809
G1 X112.038 Y116.545 E.67167
G1 X111.753 Y115.796 E.70526
G1 X111.657 Y115 E.73884
G1 X111.753 Y114.204 E.77243
G1 X112.038 Y113.455 E.80601
G1 X112.493 Y112.795 E.8396
G1 X113.048 Y112.303 E.87067
G1 X112.887 Y111.965 F9000
;TYPE:External perimeter
G1 F1200
G1 X113.678 Y111.55 E.90807
G1 X114.477 Y111.35 E.94261
G1 X115.412 Y111.337 E.98179
G1 X116.287 Y111.55 E1.0195
G1 X117.077 Y111.965 E1.05688
G1 X117.742 Y112.555 E1.09413
G1 X118.247 Y113.286 E1.13138
G1 X118.563 Y114.117 E1.16863
G1 X118.67 Y115 E1.20587
G1 X118.563 Y115.883 E1.24312
G1 X118.247 Y116.714 E1.28037
G1 X117.742 Y117.445 E1.31761
G1 X117.078 Y118.034 E1.35482
G1 X116.241 Y118.464 E1.39422
G1 X115.411 Y118.663 E1.43001
G1 X114.554 Y118.663 E1.4659
G1 X113.677 Y118.449 E1.50371
G1 X112.887 Y118.035 E1.54108
G1 X112.222 Y117.445 E1.57833
G1 X111.717 Y116.714 E1.61558
G1 X111.401 Y115.883 E1.65283
G1 X111.294 Y115 E1.69007
G1 X111.401 Y114.117 E1.72732
G1 X111.717 Y113.286 E1.76457
G1 X112.222 Y112.555 E1.80181
G1 X112.842 Y112.005 E1.83655
G1 X113.249 Y112.137 F9000
G10 ; retract
G92 E0
G1 X116.437 Y112.158
G11 ; unretract
G92 E0
;TYPE:Solid infill
;WIDTH:0.439928
M73 P14 R4
G1 F1200
G1 X117.296 Y113.017 E.05371
G1 X117.686 Y113.581 E.08404
G1 X117.907 Y114.165 E.11164
G1 X115.829 Y112.087 E.24155
G1 X115.341 Y111.968 E.26379
G1 X115.175 Y111.97 E.2711
G1 X118.012 Y114.807 E.44847
G1 X118.035 Y115 E.45708
G1 X117.995 Y115.328 E.47167
G1 X114.645 Y111.978 E.68116
G1 X114.559 Y111.979 E.68498
G1 X114.199 Y112.069 E.70137
G1 X117.923 Y115.792 E.93422
G1 X117.775 Y116.182 E.95264
G1 X113.794 Y112.2 E1.20162
G1 X113.442 Y112.385 E1.21921
G1 X117.6 Y116.543 E1.47922
G1 X117.38 Y116.861 E1.49629
G1 X113.12 Y112.601 E1.76272
G1 X112.835 Y112.853 E1.77955
G1 X117.129 Y117.147 E2.04808
G1 X116.844 Y117.4 E2.06491
G1 X112.584 Y113.139 E2.33134
G1 X112.364 Y113.457 E2.34841
M73 P15 R4
G1 X116.52 Y117.613 E2.60829
G1 X116.165 Y117.795 E2.62593
G1 X112.189 Y113.818 E2.87461
G1 X112.041 Y114.208 E2.89303
G1 X115.764 Y117.931 E3.12584
G1 X115.329 Y118.033 E3.14559
G1 X111.968 Y114.672 E3.35574
G1 X111.929 Y115 E3.37033
G1 X111.952 Y115.193 E3.37894
G1 X114.792 Y118.033 E3.55652
G1 X114.629 Y118.033 E3.56371
G1 X114.134 Y117.913 E3.58624
G1 X112.057 Y115.835 E3.71613
G1 X112.278 Y116.419 E3.74372
G1 X112.668 Y116.984 E3.77407
G1 X113.527 Y117.842 E3.82775
M106 S127.5
;LAYER_CHANGE
;Z:0.56
;HEIGHT:0.28
;BEFORE_LAYER_CHANGE
;0.56


G10 ; retract
G92 E0
G1 Z.56 F9000
;AFTER_LAYER_CHANGE
;0.56
M104 S200 ; set temperature
G1 X109.832 Y126.575
G11 ; unretract
G92 E0
;TYPE:Skirt/Brim
;WIDTH:0.42
G1 F2400
G1 X109.054 Y126.245 E.03542
G1 X107.239 Y125.082 E.12575
G1 X105.646 Y123.628 E.21609
G1 X104.322 Y121.926 E.30643
G1 X103.495 Y120.445 E.37749
G1 X102.74 Y118.426 E.46783
G1 X102.298 Y115.848 E.5774
G1 X102.337 Y113.692 E.66774
G1 X102.74 Y111.574 E.75808
G1 X103.518 Y109.513 E.85038
G1 X104.581 Y107.692 E.93873
G1 X105.646 Y106.372 E1.00979
G1 X107.239 Y104.918 E1.10013
G1 X109.054 Y103.755 E1.19046
G1 X111.04 Y102.915 E1.2808
G1 X113.596 Y102.364 E1.39038
M73 P16 R4
G1 X115.752 Y102.311 E1.48071
G1 X117.885 Y102.624 E1.57105
G1 X119.935 Y103.293 E1.66139
G1 X121.45 Y104.056 E1.73245
G1 X123.206 Y105.307 E1.82279
G1 X125.016 Y107.195 E1.93237
G1 X126.19 Y109.003 E2.0227
G1 X127.043 Y110.983 E2.11304
G1 X127.548 Y113.079 E2.20337
G1 X127.692 Y114.769 E2.27444
G1 X127.548 Y116.921 E2.36477
G1 X127.043 Y119.017 E2.45511
G1 X125.966 Y121.4 E2.56469
